X:1
T:Hough's Favorite -- Reel
R:reel
B:Ryan's Mammoth Collection
N: 384
Z: Contributed by Ray Davies,  ray:davies99.freeserve.co.uk
M:2/4
L:1/16
K:D
v"_mf""1"FG|\
AGAB AFED | GFGA Bcde | fffd ggge | fdc"4"e dFGB |
AGAB AFED | GFGA Bcde | fffd ggge | fdc"4"e d2 :|
|:"_ff"va4 u(d3.f) | "^SEGUE"edef edB2 | "1"a4 (d3.f) |\
 edef ef.g2 |
"1"a4  (d3.f) | edef ed.B2 | vfffd ggge | fdc"4"e d2 :|
